!!!OTL: Wach auf!
!!!OTL-incipit: ES TRITT DER LENZ ZUR ROSE HIN
!!!COM: W. Tschirch
!!!ARE: Europa, Mitteleuropa, Deutschland
!!!SCT: F0992
!!!TXL: @@DE
!!!YEM: Copyright 1995, estate of Helmut Schaffrath.
**kern	**text
*ICvox	*
*M4/4	*
*met(c)	*
*k[f#c#g#]	*
*A:	*
!LO:TX:a:t=Mäßig.	!
{4e	1._Es
=1	=1
4a	tritt
4a	der
4b/	Lenʒ
4b/	ʒur
=2	=2
(4.cc#	Ro-
8b	-ſe
4a)}	hin
{4cc#	und
=3	=3
(4b	ruft
4ee	wach
4dd#)	auf,
4b	wach
=4	=4
2ee	auf!
4r}	.
{4e	Du
=5	=5
4.dd	weißt,
8cc#	daß
4b	ich
4b	der
=6	=6
(4.ee	Früh-
8dd	-ling
4cc#)}	bin,
{4a	des-
=7	=7
4dd	-halb
4dd	wach
4ee	auf,
4ee	wach
=8	=8
2ff#	auf,
4r}	.
{4ff#	des-
=9	=9
(4ee	-halb
4cc#	wach
4b)	auf,
4ee	wach
=10	=10
2a	auf!
4r}	.
==	==
!!!AGN: Natur -, Jahreszeiten - Lied, Fruehling
!!!ONB: ESAC (Essen Associative Code) Database: FINK
!!!AMT: simple quadruple
!!!AIN: vox
!!!EED: Helmut Schaffrath
!!!EEV: 1.0
!!Text: Hilarius
!!!GTL: Lieder um Preise der Natur.
!!!source: Musikalischer Hausschatz der Deutschen. Eine Sammlung von über 1000 Liedern und Gesängen mit Singstimmen und Klavierbegleitung. Leipzig, Litterarisches Verlags-Haus.
!!!page: 748
!!!ENC: Anna Maria Matuszewska
!!!EEV: 2025/03/20
*-	*-
